packages/core/src/svgs/tokens/mono/ATPAY.svg

<svg width="24" height="24" viewBox="0 0 24 24" fill="none" xmlns="http://www.w3.org/2000/svg">
<path d="M17.9777 17.5873L19.2902 18.8748C19.4028 18.9747 19.3965 19.1434 19.2902 19.2497C17.3962 21.0066 14.9114 21.988 12.3278 21.9997C6.6717 22.0434 2.03427 17.5498 2.02175 12.0186C2.00926 6.48744 6.59044 2 12.2466 2C15.9341 2 19.1715 3.91873 20.9715 6.78743L19.2153 8.50615C17.9153 6.03119 15.2778 4.49997 12.2466 4.49997C7.93417 4.49997 4.54672 7.81242 4.52172 12.0186C4.49673 16.2373 7.70917 19.4373 12.0216 19.4997C14.1466 19.5311 16.184 18.8935 17.6091 17.581C17.66 17.533 17.7278 17.5068 17.7978 17.5079C17.8678 17.5091 17.9347 17.5375 17.984 17.5873H17.9777Z" fill="white"/>
<path d="M14.5216 7.08725V7.83725C13.7822 7.34072 12.9233 7.05153 12.0341 6.99976C10.7154 7.02679 9.45804 7.56186 8.52411 8.4934C7.59025 9.42494 7.05205 10.681 7.02173 11.9997C7.02173 13.3309 7.70921 14.5309 8.5967 15.3996L10.2842 13.7497C10.0411 13.528 9.84756 13.2577 9.71616 12.9561C9.58477 12.6545 9.51856 12.3286 9.52162 11.9997C9.54802 11.3429 9.8216 10.7205 10.2875 10.2569C10.7535 9.79331 11.3773 9.52279 12.0341 9.49975C12.3629 9.4964 12.6888 9.55881 12.993 9.68335C13.297 9.80804 13.5732 9.99222 13.805 10.2253C14.0368 10.4582 14.2197 10.7352 14.3428 11.04C14.4659 11.3448 14.5267 11.671 14.5216 11.9997V13.2497L17.0278 10.6873V7.12476C17.0278 7.06226 16.9215 6.99976 16.8466 6.99976H14.7217C14.6466 6.99976 14.5216 7.01851 14.5216 7.08725Z" fill="white"/>
<path d="M21.965 8.89982C21.9962 8.99357 21.9712 9.09983 21.9024 9.16851L15.7151 15.2185L15.3588 15.5685L14.3151 16.5872C13.7101 17.1729 12.901 17.5004 12.0588 17.5004C11.2168 17.5004 10.4077 17.1729 9.80266 16.5872L8.59644 15.3997L10.2839 13.7498L11.5026 14.9434C11.8151 15.2559 12.3152 15.2559 12.6276 14.9434L20.9713 6.78735C21.3837 7.44359 21.7213 8.15608 21.9712 8.89982H21.965Z" fill="white"/>
</svg>

<svg xmlns="http://www.w3.org/2000/svg" width="24" height="24" fill="none" viewBox="0 0 24 24">
    <path fill="#fff" d="m17.978 17.587 1.312 1.288c.113.1.107.268 0 .375A10.3 10.3 0 0 1 12.328 22c-5.656.043-10.294-4.45-10.306-9.981C2.009 6.487 6.59 2 12.247 2c3.687 0 6.925 1.919 8.724 4.787l-1.756 1.72C17.915 6.03 15.278 4.5 12.247 4.5c-4.313 0-7.7 3.312-7.725 7.519-.025 4.218 3.187 7.418 7.5 7.48 2.125.032 4.162-.605 5.587-1.918a.27.27 0 0 1 .375.006z"/>
    <path fill="#fff" d="M14.522 7.087v.75A5 5 0 0 0 12.034 7a5.12 5.12 0 0 0-5.012 5c0 1.33.687 2.53 1.575 3.4l1.687-1.65A2.34 2.34 0 0 1 9.522 12a2.606 2.606 0 0 1 2.512-2.5 2.464 2.464 0 0 1 2.488 2.5v1.25l2.506-2.563V7.125c0-.063-.106-.125-.181-.125h-2.125c-.075 0-.2.019-.2.087"/>
    <path fill="#fff" d="M21.965 8.9c.031.094.006.2-.063.269l-6.187 6.05-.356.35-1.044 1.018a3.244 3.244 0 0 1-4.512 0L8.596 15.4l1.688-1.65 1.219 1.193a.79.79 0 0 0 1.125 0l8.343-8.156c.413.657.75 1.37 1 2.113z"/>
</svg>
